X:1
T:The Savior with Me
T:The Savior with Me
T:John Robson Sweney
T:Frances Jane (Fanny) Crosby, 1884
T:Public Domain Courtesy of the Cyber Hymnal™)
C:John Robson Sweney
Z:Public Domain
Z:Courtesy of the Cyber Hymnal™)
%%score ( 1 2 ) ( 3 4 )
L:1/8
Q:1/4=92
M:3/4
K:E
V:1 treble 
V:2 treble 
V:3 bass 
V:4 bass 
V:1
 [EG]>[FA] | [GB]3 [EG] [Ge]>[Ac] | [GB]2 [EG]2 [Ac]>[GB] | [DF]3 [EG] [GB]>[FA] | %4
w: 1.~I must|have the Sav- ior|with me, For I|dare not go a-|
w: 2.~I must|have the Sav- ior|with me, For my|faith, at best, is|
w: 3.~I must|have the Sav- ior|with me, In the|on- ward march of|
w: 4.~I must|have the Sav- ior|with me, And His|eye the way must|
 [EG]4 [EG]>[FA] | [GB]3 [EG] [Ge]>[Ac] | [GB]2 [EG]2 [Ge]>[Ge] | [Fd]3 [Ec] [DB]>[C^A] | [DB]4 || %9
w: lone, I must|feel His pre- sence|near me, And His|arm a- round me|thrown.|
w: weak; He can|whis- per words of|com- fort, That no|o- ther voice can|speak.|
w: life, Thro’ the|tem- pest and the|sun- shine, Thro’ the|bat- tle and the|strife.|
w: guide, Till I|reach the vale of|Jor- dan, Till I|cross the roll- ing|tide.|
"^Refrain" B>B | (z2 [DB]>)[FA] [EG]>[DF] x2 | G6 [Ge]>[Bd] | [Ac]4- [Ac]>[ce][Bd]>[Ac] | %13
w: ||||
w: Then my|* soul shall fear|* no *|ill, * Let Him lead|
w: ||||
w: ||||
 [GB]6 B>B | (z2 [Ge]>)[EG] [DA]>[EB] x2 | [Ed]2 [Ec]4 [EA]>[CF] | [B,E]2 [EG]2 [DG]3 [B,F] | %17
w: ||||
w: me where He|* will, I will|* go with- out|a mur- mur, And|
w: ||||
w: ||||
 [B,E]4 |] %18
w: |
w: His|
w: |
w: |
V:2
 x2 | x6 | x6 | x6 | x6 | x6 | x6 | x6 | x4 || x2 | B4- A3/2 F/ x2 | (E2 E>E E2) x2 | x8 | x8 | %14
 e4 G3/2 G/ x2 | x8 | x8 | x4 |] %18
V:3
 z2 | ([G,,E,]2 [E,G,B,]2) z2 | [E,,E,]2 [E,B,]2 z2 | ([B,,,B,,]2 [B,,F,B,]2) z2 | %4
 ([E,,E,]2 [E,G,B,]2) z2 | ([E,,E,]2 [E,G,B,]2) z2 | [E,,E,]2 [E,B,]2 z2 | %7
 (.[F,,F,]2 .[F,,F,]2) .[F,,F,]2 | [B,,F,]4 || z2 | %10
 z2 ([B,,D,]>[B,,F,] [B,,B,]>)[B,,B,][B,,B,]>[B,,B,] | ([E,B,]2 [E,B,]>[E,B,] [E,B,]2) z2 | %12
 z2 ([A,E]>[A,E] [A,E]>)[A,E][A,E]>[A,E] | ([E,E]2 [E,E]>[E,E] [E,E]2) z2 | %14
 z2 ([E,B,]>[E,B,] [E,B,]>)[E,B,][F,B,]>[G,B,] | A,2 A,4 [A,,C]>[A,,A,] | %16
 [B,,G,]2 [B,,B,]2 [B,,B,]3 [B,,A,] | [E,G,]4 |] %18
V:4
 x2 | x6 | x6 | x6 | x6 | x6 | x6 | x6 | x4 || x2 | x8 | x8 | x8 | x8 | x8 | A,2 A,4 x2 | x8 | %17
 x4 |] %18

